assets/spark/icons/ErrorPhoto.svg

<svg viewBox="0 0 24 24" xmlns="http://www.w3.org/2000/svg">
<path d="M5.60761 7.66C5.60761 9.3 6.93122 10.63 8.56334 10.63C10.1955 10.63 11.5191 9.3 11.5191 7.66C11.5191 6.02 10.1955 4.69 8.56334 4.69C6.93122 4.69 5.60761 6.02 5.60761 7.66ZM9.82724 7.66C9.82724 8.36 9.25998 8.93 8.56334 8.93C7.86671 8.93 7.29944 8.36 7.29944 7.66C7.29944 6.96 7.86671 6.39 8.56334 6.39C9.25998 6.39 9.82724 6.96 9.82724 7.66Z" />
<path d="M6.78192 21.24C6.56298 20.88 6.44355 20.47 6.40375 20.05H4.37354C4.14465 20.05 3.95556 19.86 3.95556 19.63V13.72C4.31383 13.68 4.68205 13.66 5.04033 13.66H5.06023C6.53312 13.63 7.97616 13.96 9.27986 14.6L10.1457 12.86C8.56332 12.08 6.81178 11.68 5.03037 11.72C4.6721 11.72 4.30388 11.74 3.94561 11.77V4.36C3.94561 4.13 4.1347 3.94 4.36359 3.94H19.5602C19.7891 3.94 19.9782 4.13 19.9782 4.36V12.28C19.9782 13.63 21.9089 13.68 21.9089 12.31V4.36C21.9089 3.06 20.854 2 19.5602 2H4.36359C3.06984 2 2.01493 3.06 2.01493 4.36V12.72C1.99502 12.83 1.99502 12.94 2.01493 13.05V19.64C2.01493 20.94 3.06984 22 4.36359 22H7.49846C7.20985 21.79 6.96106 21.55 6.77197 21.24H6.78192Z" />
<path d="M15.4402 17.52C15.3207 17.46 15.2013 17.41 15.052 17.41C14.9824 17.41 14.9127 17.42 14.853 17.44C14.7933 17.46 14.7236 17.49 14.6639 17.52C14.3952 17.66 14.2161 17.93 14.2161 18.25C14.2161 18.71 14.5942 19.09 15.052 19.09C15.2511 19.09 15.4302 19.01 15.5695 18.89C15.7586 18.74 15.888 18.51 15.888 18.25C15.888 17.93 15.6989 17.66 15.4402 17.52Z" />
<path d="M15.062 16.91C15.2013 16.91 15.3207 16.86 15.4202 16.79C15.5994 16.67 15.7288 16.47 15.7288 16.24V13.16C15.7288 12.79 15.4302 12.49 15.062 12.49C14.6938 12.49 14.3952 12.79 14.3952 13.16V16.24C14.3952 16.47 14.5246 16.67 14.7037 16.79C14.8132 16.86 14.9326 16.91 15.062 16.91Z" />
<path d="M21.889 19.51L21.7099 19.12L16.7041 9.05C16.5548 8.75 16.3159 8.49 16.0273 8.32C15.7387 8.15 15.4103 8.05 15.062 8.05C14.7137 8.05 14.3852 8.14 14.0966 8.32C13.808 8.5 13.5692 8.75 13.4199 9.06L8.3245 19.3C8.18517 19.58 8.11551 19.9 8.12546 20.21C8.14536 20.55 8.24488 20.85 8.39416 21.1C8.55339 21.37 8.79224 21.59 9.06094 21.75C9.23013 21.85 9.43912 21.91 9.69787 21.95H9.78744C9.84715 21.98 9.90686 21.99 9.96657 21.99H20.1673C20.4858 21.99 20.7943 21.91 21.063 21.75C21.3417 21.59 21.5706 21.37 21.7298 21.1C21.899 20.83 21.9885 20.52 21.9985 20.21C22.0084 19.97 21.9686 19.72 21.889 19.49V19.51ZM19.9782 20.04C19.9285 20.11 19.8489 20.16 19.7693 20.16H10.3547C10.2651 20.16 10.1855 20.12 10.1457 20.04C10.0959 19.97 10.0959 19.87 10.1358 19.8L11.7082 16.64L12.6138 14.83L14.843 10.34C14.8828 10.26 14.9724 10.2 15.062 10.2C15.1515 10.2 15.2411 10.25 15.2809 10.34L18.3959 16.6L19.9882 19.81C20.028 19.89 20.0181 19.98 19.9782 20.05V20.04Z" />
</svg>

<svg viewBox="0 0 24 24" xmlns="http://www.w3.org/2000/svg">
  <path d="m5.61,7.66c0,1.64,1.32,2.97,2.96,2.97s2.96-1.33,2.96-2.97-1.32-2.97-2.96-2.97-2.96,1.33-2.96,2.97Zm4.22,0c0,.7-.57,1.27-1.26,1.27s-1.26-.57-1.26-1.27.57-1.27,1.26-1.27,1.26.57,1.26,1.27Z"/>
  <path d="m6.78,21.24c-.22-.36-.34-.77-.38-1.19h-2.03c-.23,0-.42-.19-.42-.42v-5.91c.36-.04.73-.06,1.08-.06h.02c1.47-.03,2.92.3,4.22.94l.87-1.74c-1.58-.78-3.33-1.18-5.12-1.14-.36,0-.73.02-1.08.05v-7.41c0-.23.19-.42.42-.42h15.2c.23,0,.42.19.42.42v7.92c0,1.35,1.93,1.4,1.93.03v-7.95c0-1.3-1.05-2.36-2.35-2.36H4.36c-1.29,0-2.35,1.06-2.35,2.36v8.36c-.02.11-.02.22,0,.33v6.59c0,1.3,1.05,2.36,2.35,2.36h3.13c-.29-.21-.54-.45-.73-.76h0Z"/>
  <path d="m15.44,17.52c-.12-.06-.24-.11-.39-.11-.07,0-.14.01-.2.03-.06.02-.13.05-.19.08-.27.14-.45.41-.45.73,0,.46.38.84.84.84.2,0,.38-.08.52-.2.19-.15.32-.38.32-.64,0-.32-.19-.59-.45-.73Z"/>
  <path d="m15.06,16.91c.14,0,.26-.05.36-.12.18-.12.31-.32.31-.55v-3.08c0-.37-.3-.67-.67-.67s-.67.3-.67.67v3.08c0,.23.13.43.31.55.11.07.23.12.36.12Z"/>
  <path d="m21.89,19.51l-.18-.39-5.01-10.07c-.15-.3-.39-.56-.68-.73-.29-.17-.62-.27-.97-.27s-.68.09-.97.27c-.29.18-.53.43-.68.74l-5.1,10.24c-.14.28-.21.6-.2.91.02.34.12.64.27.89.16.27.4.49.67.65.17.1.38.16.64.2h.09c.06.03.12.04.18.04h10.2c.32,0,.63-.08.9-.24.28-.16.51-.38.67-.65.17-.27.26-.58.27-.89,0-.24-.03-.49-.11-.72v.02Zm-1.91.53c-.05.07-.13.12-.21.12h-9.41c-.09,0-.17-.04-.21-.12-.05-.07-.05-.17,0-.24l1.57-3.16.91-1.81,2.23-4.49c.04-.08.13-.14.22-.14s.18.05.22.14l3.12,6.26,1.59,3.21c.04.08.03.17,0,.24h0Z"/>
</svg>
